svg/UnitedNations-Flags/flag-ph.svg

<?xml version="1.0" encoding="UTF-8" standalone="no"?>
<!-- Created with Inkscape (http://www.inkscape.org/) --><svg height="256" id="svg1307" inkscape:output_extension="org.inkscape.output.svg.inkscape" inkscape:version="0.46" sodipodi:docname="Flag_of_the_Philippines.svg" sodipodi:version="0.32" version="1.0" width="256" xmlns="http://www.w3.org/2000/svg" xmlns:cc="http://creativecommons.org/ns#" xmlns:dc="http://purl.org/dc/elements/1.1/" xmlns:inkscape="http://www.inkscape.org/namespaces/inkscape" xmlns:rdf="http://www.w3.org/1999/02/22-rdf-syntax-ns#" xmlns:sodipodi="http://sodipodi.sourceforge.net/DTD/sodipodi-0.dtd" xmlns:svg="http://www.w3.org/2000/svg">
  <metadata>
    <rdf:RDF xmlns:cc="http://web.resource.org/cc/" xmlns:dc="http://purl.org/dc/elements/1.1/" xmlns:rdf="http://www.w3.org/1999/02/22-rdf-syntax-ns#">
      <cc:Work rdf:about="">
        <dc:title></dc:title>
        <dc:description></dc:description>
        <dc:subject>
          <rdf:Bag>
            <rdf:li>unsorted</rdf:li>
          </rdf:Bag>
        </dc:subject>
        <dc:publisher>
          <cc:Agent rdf:about="http://www.openclipart.org/">
            <dc:title>Open Clip Art Library, Source: Wikimedia Commons, Source: Wikimedia Commons, Source: Wikimedia Commons, Source: Wikimedia Commons</dc:title>
          </cc:Agent>
        </dc:publisher>
        <dc:creator>
          <cc:Agent>
            <dc:title></dc:title>
          </cc:Agent>
        </dc:creator>
        <dc:rights>
          <cc:Agent>
            <dc:title></dc:title>
          </cc:Agent>
        </dc:rights>
        <dc:date></dc:date>
        <dc:format>image/svg+xml</dc:format>
        <dc:type rdf:resource="http://purl.org/dc/dcmitype/StillImage"/>
        <cc:license rdf:resource="http://en.wikipedia.org/wiki/Public_domain"/>
        <dc:language>en</dc:language>
      </cc:Work>
    </rdf:RDF>
  </metadata>
  <sodipodi:namedview bordercolor="#666666" borderopacity="1.0" gridtolerance="10.0" guidetolerance="10.0" id="base" inkscape:current-layer="svg1307" inkscape:cx="450" inkscape:cy="225" inkscape:pageopacity="0.0" inkscape:pageshadow="2" inkscape:window-height="722" inkscape:window-width="907" inkscape:window-x="13" inkscape:window-y="216" inkscape:zoom="0.62111111" objecttolerance="10.0" pagecolor="#ffffff" showgrid="false"/>
  <defs id="defs3">
    <inkscape:perspective id="perspective2416" inkscape:persp3d-origin="450 : 150 : 1" inkscape:vp_x="0 : 225 : 1" inkscape:vp_y="0 : 1000 : 0" inkscape:vp_z="900 : 225 : 1" sodipodi:type="inkscape:persp3d"/>
  </defs>
  <rect height="128" id="blue" style="fill:#0038a8" width="256" x="0" y="64"/>
  <rect height="64" id="red" style="fill:#ce1126" width="256" x="0" y="128"/>
  <path d="M 110.9285,128.00011 L 0,192 L 0.00022227246,64 L 110.9285,128.00011 z" id="path279" style="fill:#ffffff"/>
  <path d="M 43.211588,115.92198 L 45.511049,107.10762 L 43.97855,105.199 L 42.088823,115.92198 L 43.211588,115.92198 L 43.211588,115.92198 z M 38.435863,115.92198 L 37.103167,103.97588 L 39.791266,100.97784 L 42.444075,103.97588 L 41.105527,115.92198 L 38.435863,115.92198 z M 36.328027,115.92198 L 34.133271,107.10762 L 35.690618,105.199 L 37.452564,115.92198 L 36.328027,115.92198 z" id="path426-7-1" style="fill:#fcd116;fill-opacity:1"/>
  <circle cx="82.530502" cy="149.8075" id="circle1323-7" r="30.915501" sodipodi:cx="82.530502" sodipodi:cy="149.8075" sodipodi:rx="30.915501" sodipodi:ry="30.915501" style="fill:#fcd116;fill-opacity:1" transform="matrix(0.4140318,0,0,0.4140318,5.6519083,65.97493)"/>
  <path d="M 36.432731,140.07802 L 34.133271,148.89238 L 35.665769,150.801 L 37.555496,140.07802 L 36.432731,140.07802 L 36.432731,140.07802 z M 41.208457,140.07802 L 42.541153,152.02412 L 39.853053,155.02216 L 37.200245,152.02412 L 38.538792,140.07802 L 41.208457,140.07802 L 41.208457,140.07802 z M 43.316292,140.07802 L 45.511049,148.89238 L 43.953701,150.801 L 42.191755,140.07802 L 43.316292,140.07802 L 43.316292,140.07802 z" id="path2879" style="fill:#fcd116;fill-opacity:1"/>
  <path d="M 51.900177,131.38943 L 60.714542,133.68889 L 62.623164,132.15639 L 51.900177,130.26666 L 51.900177,131.38943 L 51.900177,131.38943 z M 51.900177,126.6137 L 63.846275,125.28101 L 66.844319,127.96911 L 63.846275,130.62192 L 51.900177,129.28337 L 51.900177,126.6137 L 51.900177,126.6137 z M 51.900177,124.50587 L 60.714542,122.31111 L 62.623164,123.86846 L 51.900177,125.6304 L 51.900177,124.50587 L 51.900177,124.50587 z" id="path2894" style="fill:#fcd116;fill-opacity:1"/>
  <circle cx="82.530502" cy="149.8075" id="circle2896" r="30.915501" sodipodi:cx="82.530502" sodipodi:cy="149.8075" sodipodi:rx="30.915501" sodipodi:ry="30.915501" style="fill:#fcd116;fill-opacity:1" transform="matrix(0,0.4140318,-0.4140318,0,101.84722,93.82975)"/>
  <path d="M 27.744142,124.61057 L 18.929778,122.31111 L 17.021156,123.84361 L 27.744142,125.73334 L 27.744142,124.61057 L 27.744142,124.61057 z M 27.744142,129.3863 L 15.798044,130.71899 L 12.8,128.03089 L 15.798044,125.37808 L 27.744142,126.71663 L 27.744142,129.3863 L 27.744142,129.3863 z M 27.744142,131.49413 L 18.929778,133.68889 L 17.021156,132.13154 L 27.744142,130.3696 L 27.744142,131.49413 L 27.744142,131.49413 z" id="path2898" style="fill:#fcd116;fill-opacity:1"/>
  <path d="M 33.678401,117.06286 L 29.071667,109.2042 L 26.638427,108.93824 L 32.884486,117.85678 L 33.678401,117.06286 z M 30.301454,120.43981 L 20.911929,112.935 L 20.692764,108.91429 L 24.688521,109.15841 L 32.189193,118.55207 L 30.301454,120.43981 L 30.301454,120.43981 z M 28.810988,121.93028 L 21.026364,117.24951 L 20.777975,114.79869 L 29.606155,121.13511 L 28.810988,121.93028 L 28.810988,121.93028 z" id="path2954" style="fill:#fcd116;fill-opacity:1"/>
  <circle cx="82.530502" cy="149.8075" id="circle2956" r="30.915501" sodipodi:cx="82.530502" sodipodi:cy="149.8075" sodipodi:rx="30.915501" sodipodi:ry="30.915501" style="fill:#fcd116;fill-opacity:1" transform="matrix(0.2927647,-0.2927647,0.2927647,0.2927647,-28.198207,108.30367)"/>
  <path d="M 45.965921,138.93714 L 50.572655,146.7958 L 53.005895,147.06175 L 46.759836,138.14322 L 45.965921,138.93714 z M 49.342868,135.56019 L 58.732393,143.06499 L 58.951558,147.08571 L 54.955802,146.84159 L 47.455132,137.44792 L 49.342868,135.56019 L 49.342868,135.56019 z M 50.833334,134.06972 L 58.617958,138.75049 L 58.866347,141.2013 L 50.038167,134.86489 L 50.833334,134.06972 L 50.833334,134.06972 z" id="path2958" style="fill:#fcd116;fill-opacity:1"/>
  <path d="M 50.759296,121.85624 L 58.617958,117.24951 L 58.883917,114.81627 L 49.965383,121.06233 L 50.759296,121.85624 z M 47.382349,118.47929 L 54.887157,109.08977 L 58.907867,108.8706 L 58.663751,112.86636 L 49.270087,120.36703 L 47.382349,118.47929 z M 45.891886,116.98883 L 50.572655,109.2042 L 53.023465,108.95581 L 46.687053,117.78399 L 45.891886,116.98883 L 45.891886,116.98883 z" id="path2960" style="fill:#fcd116;fill-opacity:1"/>
  <circle cx="82.530502" cy="149.8075" id="circle2962" r="30.915501" sodipodi:cx="82.530502" sodipodi:cy="149.8075" sodipodi:rx="30.915501" sodipodi:ry="30.915501" style="fill:#fcd116;fill-opacity:1" transform="matrix(0.2927647,0.2927647,-0.2927647,0.2927647,59.51849,59.97964)"/>
  <path d="M 28.885026,134.14376 L 21.026364,138.75049 L 20.760405,141.18373 L 29.678939,134.93767 L 28.885026,134.14376 L 28.885026,134.14376 z M 32.261973,137.52071 L 24.757166,146.91023 L 20.736455,147.1294 L 20.980574,143.13364 L 30.374235,135.63297 L 32.261973,137.52071 z M 33.752437,139.01117 L 29.071667,146.7958 L 26.620857,147.04418 L 32.957269,138.216 L 33.752437,139.01117 z" id="path2964" style="fill:#fcd116;fill-opacity:1"/>
  <path d="M 84.056707,132.62911 L 87.446579,128.00719 L 84.047363,123.39213 L 89.490611,125.18785 L 92.829375,120.52888 L 92.806847,126.26062 L 98.269571,127.99627 L 92.810448,129.74296 L 92.84422,135.47463 L 89.496112,130.8224 L 84.056468,132.62911 L 84.056707,132.62911 z" id="path2036" style="fill:#fcd116"/>
  <path d="M 17.278106,84.80794 L 11.580469,84.18319 L 9.2833126,89.43453 L 8.116833,83.82267 L 2.4126649,83.2607 L 7.3877569,80.41435 L 6.1595156,74.81566 L 10.401754,78.67006 L 15.348636,75.77498 L 12.993745,81.00064 L 17.278225,84.80815 L 17.278106,84.80794 z" id="path3879" style="fill:#fcd116"/>
  <path d="M 17.278106,171.19206 L 11.580469,171.81681 L 9.2833126,166.56547 L 8.116833,172.17733 L 2.4126649,172.73929 L 7.3877569,175.58565 L 6.1595156,181.18434 L 10.401754,177.32994 L 15.348636,180.22502 L 12.993745,174.99936 L 17.278225,171.19185 L 17.278106,171.19206 z" id="path3899" style="fill:#fcd116;fill-opacity:1"/>
</svg>

<svg xmlns="http://www.w3.org/2000/svg" viewBox="0 0 256 256"><path fill="#0038a8" d="m0 64h256v128h-256z"/><path fill="#ce1126" d="m0 128h256v64h-256z"/><path d="m110.93 128l-110.93 64v-128l110.93 64" fill="#fff"/><g fill="#fcd116"><path d="m43.21 115.92l2.299-8.814-1.532-1.909-1.89 10.723h1.123m-4.776 0l-1.333-11.946 2.688-2.998 2.653 2.998-1.339 11.946h-2.67m-2.108 0l-2.195-8.814 1.557-1.909 1.762 10.723h-1.125"/><circle cx="82.53" cy="149.81" r="30.916" transform="matrix(.41403 0 0 .41403 5.652 65.975)"/><path d="m36.433 140.08l-2.299 8.814 1.532 1.909 1.89-10.723h-1.123m4.776 0l1.333 11.946-2.688 2.998-2.653-2.998 1.339-11.946h2.67m2.108 0l2.195 8.814-1.557 1.909-1.762-10.723h1.125"/><path d="m51.9 131.39l8.814 2.299 1.909-1.532-10.723-1.89v1.123m0-4.776l11.946-1.333 2.998 2.688-2.998 2.653-11.946-1.339v-2.67m0-2.108l8.814-2.195 1.909 1.557-10.723 1.762v-1.125"/><circle cx="82.53" cy="149.81" r="30.916" transform="matrix(0 .41403-.41403 0 101.85 93.83)"/><path d="m27.744 124.61l-8.814-2.299-1.909 1.532 10.723 1.89v-1.123m0 4.776l-11.946 1.333-2.998-2.688 2.998-2.653 11.946 1.339v2.67m0 2.108l-8.814 2.195-1.909-1.557 10.723-1.762v1.125"/><path d="m33.678 117.06l-4.607-7.859-2.433-.266 6.246 8.919.794-.794m-3.377 3.377l-9.39-7.505-.219-4.02 3.996.244 7.501 9.394-1.888 1.888m-1.49 1.49l-7.785-4.681-.248-2.451 8.828 6.336-.795.795"/><circle cx="82.53" cy="149.81" r="30.916" transform="matrix(.29276-.29276.29276.29276-28.2 108.3)"/><path d="m45.966 138.94l4.607 7.859 2.433.266-6.246-8.919-.794.794m3.377-3.377l9.39 7.505.219 4.02-3.996-.244-7.501-9.394 1.888-1.888m1.49-1.49l7.785 4.681.248 2.451-8.828-6.336.795-.795"/><path d="m50.759 121.86l7.859-4.607.266-2.433-8.919 6.246.794.794m-3.377-3.377l7.505-9.39 4.02-.219-.244 3.996-9.394 7.501-1.888-1.888m-1.49-1.49l4.681-7.785 2.451-.248-6.336 8.828-.795-.795"/><circle cx="82.53" cy="149.81" r="30.916" transform="matrix(.29276.29276-.29276.29276 59.52 59.98)"/><path d="m28.885 134.14l-7.859 4.607-.266 2.433 8.919-6.246-.794-.794m3.377 3.377l-7.505 9.39-4.02.219.244-3.996 9.394-7.501 1.888 1.888m1.49 1.49l-4.681 7.785-2.451.248 6.336-8.828.795.795"/><path d="m84.06 132.63l3.39-4.622-3.399-4.615 5.443 1.796 3.339-4.659-.023 5.732 5.463 1.736-5.459 1.747.034 5.732-3.348-4.652-5.44 1.807"/><path d="m17.278 84.81l-5.698-.625-2.297 5.251-1.166-5.612-5.704-.562 4.975-2.846-1.228-5.599 4.242 3.854 4.947-2.895-2.355 5.226 4.284 3.808"/><path d="m17.278 171.19l-5.698.625-2.297-5.251-1.166 5.612-5.704.562 4.975 2.846-1.228 5.599 4.242-3.854 4.947 2.895-2.355-5.226 4.284-3.808"/></g></svg>
